X:1
T:Gagnsf\"ora
L:1/8
M:3/4
I:linebreak $
K:D
V:1 treble 
V:1
 (G | F)(E D)(E F)(G | A)d f2({f} f{gf}e/f/) |{b} ag e2{d} c{dc}B/c/ | dB A z G2 | %5
{G} F(E D)(E F)(G |$ A)d f2{f} f{gf}e/f/ |{g} fe gf ed | (c<e) d3 :: d | dc c<e ee | %11
{f} ed d<f{g} f{gf}e/f/ | g(f e)(d c)(B |$ A<)d BG F{GF}(E | D>)E F(G A)A | d>e f2{g} f{gf}e/f/ | %16
{g} fe gf ed | (c<e) [Dd]3 :| %18
